img/svg/main-service-1.svg

<svg width="50" height="175" viewBox="0 0 50 175" fill="none" xmlns="http://www.w3.org/2000/svg">
<rect x="20" y="18" width="10" height="122" fill="white"/>
<path d="M10 130C10 127.239 12.2386 125 15 125H35C37.7614 125 40 127.239 40 130V142H10V130Z" fill="#4096FC"/>
<path d="M3.61804 147.236C1.95578 143.912 4.37326 140 8.09017 140H41.9098C45.6267 140 48.0442 143.912 46.382 147.236L36 168C36 168 28 174.5 25 174.5C22 174.5 14 168 14 168L3.61804 147.236Z" fill="white"/>
<circle cx="25" cy="10" r="7.5" fill="#4096FC" stroke="white" stroke-width="5"/>
</svg>

<svg width="50" height="175" viewBox="0 0 50 175" fill="none" xmlns="http://www.w3.org/2000/svg"><path fill="#fff" d="M20 18h10v122H20z"/><path d="M10 130a5 5 0 015-5h20a5 5 0 015 5v12H10v-12z" fill="#4096FC"/><path d="M3.618 147.236C1.956 143.912 4.373 140 8.09 140h33.82c3.717 0 6.134 3.912 4.472 7.236L36 168s-8 6.5-11 6.5-11-6.5-11-6.5L3.618 147.236z" fill="#fff"/><circle cx="25" cy="10" r="7.5" fill="#4096FC" stroke="#fff" stroke-width="5"/></svg>
